app/assets/images/create_poll.svg

<svg xmlns="http://www.w3.org/2000/svg" width="81.3" height="26.3" class="header__create__text"><style>.st0{fill:#144b71}</style><path class="st0" d="M2.8 8.9c-.7-.3-1.4-.8-1.9-1.5C-.6 5.3-.2 2.5 1.9 1 4-.6 6.8-.1 8.3 2c.5.7.8 1.5.9 2.3L8.1 5c.1-.8-.1-1.6-.7-2.4C6.3 1.1 4.2.8 2.6 1.9 1 3.1.7 5.1 1.8 6.7c.5.8 1.3 1.2 2 1.4l-1 .8zM10.6 4.9l1.9 1.8c1.2 1.1 1.4 2.6.3 3.7-.9.9-2 .9-2.9.4.4 1.1.1 2.8-1.1 4.6l-.8-.7c1.2-1.9 1.4-3.8.6-4.6l-.7-.6-2.5 2.7-.8-.8 6-6.5zm1.2 2.6l-1.1-1-2.1 2.2 1.1 1c.7.6 1.6.7 2.2 0 .7-.7.6-1.5-.1-2.2zM11.1 17.2L16 9.7l4 2.6-.6.9-3.1-2-1.5 2.4 2.9 1.9-.6.9-2.9-1.9-1.6 2.4 3.1 2-.6.9-4-2.6zM23.3 20.8L20 19.5l-1.8 1.9-1.2-.5 6.5-6.9 1.2.5-.3 9.5-1.2-.5.1-2.7zm-2.6-2.2l2.6 1.1.2-4.1-2.8 3zM29.5 17.1l-2.3-.6.2-1 5.7 1.4-.2 1-2.3-.5-1.8 7.6-1.1-.3 1.8-7.6zM33.6 25.9l.6-8.9 4.8.3-.1 1.1-3.7-.3-.1 2.9 3.4.2-.1 1.1-3.4-.2-.2 2.9 3.7.3-.1 1.1-4.8-.5zM49.3 22.6l-3.5.7-.4 2.6-1.3.2 1.7-9.4 1.3-.2 4.9 8.2-1.3.2-1.4-2.3zm-3.3-.5l2.8-.5-2.1-3.5-.7 4zM53.8 14.6l2.4-1.1c1.5-.7 3-.3 3.7 1.2.7 1.5.1 2.9-1.4 3.6l-1.4.6 1.5 3.2-1 .5-3.8-8zm2.9-.2l-1.4.6 1.4 2.9 1.4-.6c.8-.4 1.3-1.1.8-2.1s-1.4-1.2-2.2-.8zM62.9 9.2c2.1-1.6 4.9-1.2 6.4.9 1.6 2.1 1.2 4.9-.9 6.4-2.1 1.6-4.9 1.2-6.4-.9-1.6-2-1.2-4.8.9-6.4zm4.9 6.4c1.6-1.2 1.8-3.3.6-4.8-1.2-1.5-3.3-1.9-4.8-.7s-1.8 3.3-.6 4.8c1.1 1.6 3.2 1.9 4.8.7zM74.1 11.4l-6.7-5.9.7-.8L74 9.8 76.4 7l.8.7-3.1 3.7zM78.7 5.8L71.2 1l.6-1 6.6 4.2 2-3.1.9.6-2.6 4.1z"/></svg>

<!-- Generator: Adobe Illustrator 22.1.0, SVG Export Plug-In  -->
<svg version="1.1"
   xmlns="http://www.w3.org/2000/svg" xmlns:xlink="http://www.w3.org/1999/xlink" xmlns:a="http://ns.adobe.com/AdobeSVGViewerExtensions/3.0/"
   x="0px" y="0px" width="81.3px" height="26.3px" viewBox="0 0 81.3 26.3" style="enable-background:new 0 0 81.3 26.3;"
   xml:space="preserve" class="header__create__text">
<style type="text/css">
  .st0{fill:#144B71;}
</style>
<defs>
</defs>
<g>
  <path class="st0" d="M2.8,8.9C2.1,8.6,1.4,8.1,0.9,7.4c-1.5-2.1-1.1-4.9,1-6.4C4-0.6,6.8-0.1,8.3,2c0.5,0.7,0.8,1.5,0.9,2.3L8.1,5
    C8.2,4.2,8,3.4,7.4,2.6C6.3,1.1,4.2,0.8,2.6,1.9C1,3.1,0.7,5.1,1.8,6.7c0.5,0.8,1.3,1.2,2,1.4L2.8,8.9z"/>
  <path class="st0" d="M10.6,4.9l1.9,1.8c1.2,1.1,1.4,2.6,0.3,3.7c-0.9,0.9-2,0.9-2.9,0.4c0.4,1.1,0.1,2.8-1.1,4.6L8,14.7
    c1.2-1.9,1.4-3.8,0.6-4.6L7.9,9.5l-2.5,2.7l-0.8-0.8L10.6,4.9z M11.8,7.5l-1.1-1L8.6,8.7l1.1,1c0.7,0.6,1.6,0.7,2.2,0
    C12.6,9,12.5,8.2,11.8,7.5z"/>
  <path class="st0" d="M11.1,17.2L16,9.7l4,2.6l-0.6,0.9l-3.1-2l-1.5,2.4l2.9,1.9l-0.6,0.9l-2.9-1.9l-1.6,2.4l3.1,2l-0.6,0.9
    L11.1,17.2z"/>
  <path class="st0" d="M23.3,20.8L20,19.5l-1.8,1.9L17,20.9l6.5-6.9l1.2,0.5L24.4,24l-1.2-0.5L23.3,20.8z M20.7,18.6l2.6,1.1l0.2-4.1
    L20.7,18.6z"/>
  <path class="st0" d="M29.5,17.1l-2.3-0.6l0.2-1l5.7,1.4l-0.2,1l-2.3-0.5L28.8,25l-1.1-0.3L29.5,17.1z"/>
  <path class="st0" d="M33.6,25.9l0.6-8.9l4.8,0.3l-0.1,1.1l-3.7-0.3L35.1,21l3.4,0.2l-0.1,1.1L35,22.1l-0.2,2.9l3.7,0.3l-0.1,1.1
    L33.6,25.9z"/>
  <path class="st0" d="M49.3,22.6l-3.5,0.7l-0.4,2.6l-1.3,0.2l1.7-9.4l1.3-0.2l4.9,8.2l-1.3,0.2L49.3,22.6z M46,22.1l2.8-0.5
    l-2.1-3.5L46,22.1z"/>
  <path class="st0" d="M53.8,14.6l2.4-1.1c1.5-0.7,3-0.3,3.7,1.2c0.7,1.5,0.1,2.9-1.4,3.6l-1.4,0.6l1.5,3.2l-1,0.5L53.8,14.6z
     M56.7,14.4l-1.4,0.6l1.4,2.9l1.4-0.6c0.8-0.4,1.3-1.1,0.8-2.1C58.4,14.2,57.5,14,56.7,14.4z"/>
  <path class="st0" d="M62.9,9.2c2.1-1.6,4.9-1.2,6.4,0.9c1.6,2.1,1.2,4.9-0.9,6.4c-2.1,1.6-4.9,1.2-6.4-0.9
    C60.4,13.6,60.8,10.8,62.9,9.2z M67.8,15.6c1.6-1.2,1.8-3.3,0.6-4.8c-1.2-1.5-3.3-1.9-4.8-0.7c-1.5,1.2-1.8,3.3-0.6,4.8
    C64.1,16.5,66.2,16.8,67.8,15.6z"/>
  <path class="st0" d="M74.1,11.4l-6.7-5.9l0.7-0.8L74,9.8l2.4-2.8l0.8,0.7L74.1,11.4z"/>
  <path class="st0" d="M78.7,5.8l-7.5-4.8L71.8,0l6.6,4.2l2-3.1l0.9,0.6L78.7,5.8z"/>
</g>
</svg>
